X:3411
T:Cooley's Reel
M:4/4
L:1/8
R:Reel
K:D Maj.
|: EBBA B2 EB | B2 AB dBAG | (3FED AD BDAD | (3FED AD BAGF|
EBBA B2 EB | B2 AB defg | afec dBAF | DEFD E2 :|
|: eB (3BBB eBgf | eB (3BBB gedB | A2 FA DAFA | BAFA defg | 
eB (3BBB eBgf | eB (3BBB defg | afec dBAF | DEFD E2 :|


